; HEADER_BLOCK_START
; generated by OrcaSlicer 2.1.1 on 2024-10-23 at 17:26:12
; total layer number: 30
; filament_density: 1.24
; filament_diameter: 1.75
; max_z_height: 6.00
; HEADER_BLOCK_END

; external perimeters extrusion width = 0.42mm
; perimeters extrusion width = 0.45mm
; infill extrusion width = 0.45mm
; solid infill extrusion width = 0.42mm
; top infill extrusion width = 0.42mm
; support material extrusion width = 0.38mm
; first layer extrusion width = 0.46mm

; EXECUTABLE_BLOCK_START
M201 X2500 Y2500 Z500 E5000
M203 X250 Y250 Z5 E40
M204 P2500 R500 T2500 ; sets acceleration (P, T) and retract acceleration (R), mm/sec^2
M205 X10.00 Y10.00 Z0.40 E5.00 ; sets the jerk limits, mm/sec
;TYPE:Custom
M220 S100 ;Reset Feedrate 
M221 S100 ;Reset Flowrate 
 
M104 S220 ;Set final nozzle temp 
M190 S55 ;Set and wait for bed temp to stabilize 
G28 ;Home 
G92 E0 ;Reset Extruder 
G1 Z2.0 F3000 ;Move Z Axis up 
G1 X-2.1 Y20 Z0.28 F5000.0 ;Move to start position 
M109 S220 ;Wait for nozzle temp to stabilize 
G1 X-2.1 Y145.0 Z0.28 F1500.0 E15 ;Draw the first line 
G1 X-2.4 Y145.0 Z0.28 F5000.0 ;Move to side a little 
G1 X-2.4 Y20 Z0.28 F1500.0 E30 ;Draw the second line 
G92 E0  ;Reset Extruder 
G1 E-1.0000 F1800 ;Retract a bit 
G1 Z2.0 F3000 ;Move Z Axis up 
G1 E0.0000 F1800
G90
G21
M83 ; use relative distances for extrusion
; filament start gcode
M106 S0
;LAYER_CHANGE
;Z:0.2
;HEIGHT:0.2
;BEFORE_LAYER_CHANGE
;0.2
G92 E0

G1 E-1.2 F2400
;_SET_FAN_SPEED_CHANGING_LAYER
M204 P500
; printing object Динамик.stl id:0 copy 0
M204 T500
G1 Z.4 F9000
G1 X135.853 Y135.853
G1 Z.4
G1 Z.2
G1 E1.2 F1800
;TYPE:Inner wall
;WIDTH:0.459999
G1 X84.147 Y135.853 E1.75731
G1 X84.147 Y84.147 E1.75731
G1 X135.853 Y84.147 E1.75731
G1 X135.853 Y135.813 E1.75595
G1 X136.27 Y136.27 F9000
;TYPE:Outer wall
G1 F1800
G1 X83.73 Y136.27 E1.78566
G1 X83.73 Y83.73 E1.78566
G1 X136.27 Y83.73 E1.78566
G1 X136.27 Y136.23 E1.7843
G1 E-.84 F2400
;WIPE_START
G1 F1800
G1 X135.27 Y136.231 E-.36
;WIPE_END
G1 Z.6 F9000
G1 X106.234 Y86.149 Z.6
G1 Z.2
G1 E1.2 F1800
;TYPE:Inner wall
G1 X107.477 Y85.985 E.04264
G1 X108.861 Y85.883 E.04714
G1 X110 Y85.853 E.03873
G1 X111.264 Y85.886 E.04296
G1 X112.524 Y85.985 E.04297
G1 X113.777 Y86.15 E.04297
G1 X115.021 Y86.38 E.04297
G1 X116.25 Y86.675 E.04297
G1 X117.462 Y87.035 E.04297
G1 X118.654 Y87.457 E.04297
G1 X119.822 Y87.94 E.04297
G1 X120.963 Y88.485 E.04297
G1 X122.074 Y89.088 E.04297
G1 X123.152 Y89.748 E.04296
G1 X124.193 Y90.464 E.04297
G1 X125.196 Y91.234 E.04297
G1 X126.158 Y92.055 E.04297
G1 X127.075 Y92.925 E.04296
G1 X127.945 Y93.842 E.04297
G1 X128.766 Y94.804 E.04297
G1 X129.536 Y95.807 E.04297
G1 X130.252 Y96.848 E.04297
G1 X130.913 Y97.928 E.04302
G1 X131.569 Y99.15 E.04714
G1 X132.06 Y100.178 E.03873
G1 X132.543 Y101.346 E.04297
G1 X132.965 Y102.538 E.04297
G1 X133.325 Y103.75 E.04297
G1 X133.62 Y104.979 E.04297
G1 X133.85 Y106.223 E.04297
G1 X134.015 Y107.476 E.04297
G1 X134.114 Y108.736 E.04297
G1 X134.147 Y110 E.04297
G1 X134.114 Y111.264 E.04296
G1 X134.015 Y112.524 E.04297
G1 X133.85 Y113.777 E.04297
G1 X133.62 Y115.021 E.04297
G1 X133.325 Y116.25 E.04297
G1 X132.965 Y117.462 E.04297
G1 X132.543 Y118.654 E.04296
G1 X132.06 Y119.822 E.04297
G1 X131.515 Y120.963 E.04297
G1 X130.912 Y122.074 E.04297
G1 X130.252 Y123.152 E.04296
G1 X129.536 Y124.193 E.04297
G1 X128.766 Y125.196 E.04297
G1 X127.945 Y126.158 E.04297
G1 X127.075 Y127.075 E.04297
G1 X126.158 Y127.945 E.04297
G1 X125.196 Y128.766 E.04297
G1 X124.193 Y129.536 E.04297
G1 X123.152 Y130.252 E.04297
G1 X122.072 Y130.913 E.04302
G1 X120.85 Y131.569 E.04714
G1 X119.822 Y132.06 E.03873
G1 X118.654 Y132.543 E.04297
G1 X117.462 Y132.965 E.04297
G1 X116.25 Y133.325 E.04297
G1 X115.021 Y133.62 E.04297
G1 X113.777 Y133.85 E.04297
G1 X112.524 Y134.015 E.04297
G1 X111.264 Y134.114 E.04297
G1 X110 Y134.147 E.04297
G1 X108.736 Y134.114 E.04297
G1 X107.476 Y134.015 E.04297
G1 X106.223 Y133.85 E.04297
G1 X104.979 Y133.62 E.04297
G1 X103.75 Y133.325 E.04297
G1 X102.538 Y132.965 E.04297
G1 X101.346 Y132.543 E.04297
G1 X100.178 Y132.06 E.04297
G1 X99.037 Y131.515 E.04297
G1 X97.926 Y130.912 E.04297
G1 X96.848 Y130.252 E.04296
G1 X95.807 Y129.536 E.04297
G1 X94.804 Y128.766 E.04297
G1 X93.842 Y127.945 E.04297
G1 X92.925 Y127.075 E.04297
G1 X92.055 Y126.158 E.04297
G1 X91.234 Y125.196 E.04297
G1 X90.464 Y124.193 E.04297
G1 X89.748 Y123.152 E.04297
G1 X89.087 Y122.072 E.04302
G1 X88.431 Y120.85 E.04714
G1 X87.94 Y119.822 E.03873
G1 X87.457 Y118.654 E.04297
G1 X87.035 Y117.462 E.04297
G1 X86.675 Y116.25 E.04297
G1 X86.38 Y115.021 E.04297
G1 X86.15 Y113.777 E.04297
G1 X85.985 Y112.524 E.04297
G1 X85.886 Y111.264 E.04297
G1 X85.853 Y110 E.04297
G1 X85.886 Y108.736 E.04296
G1 X85.985 Y107.476 E.04297
G1 X86.15 Y106.223 E.04297
G1 X86.38 Y104.98 E.04297
G1 X86.675 Y103.75 E.04297
G1 X87.035 Y102.538 E.04297
G1 X87.457 Y101.346 E.04297
G1 X87.94 Y100.178 E.04297
G1 X88.485 Y99.037 E.04297
G1 X89.088 Y97.926 E.04297
G1 X89.748 Y96.848 E.04296
G1 X90.464 Y95.807 E.04297
G1 X91.234 Y94.804 E.04297
G1 X92.055 Y93.842 E.04297
G1 X92.925 Y92.925 E.04296
G1 X93.842 Y92.055 E.04297
G1 X94.804 Y91.234 E.04297
G1 X95.807 Y90.464 E.04297
G1 X96.848 Y89.748 E.04297
G1 X97.926 Y89.088 E.04297
G1 X99.037 Y88.485 E.04297
G1 X100.178 Y87.94 E.04297
G1 X101.346 Y87.457 E.04297
G1 X102.538 Y87.035 E.04297
G1 X103.75 Y86.676 E.04297
G1 X104.979 Y86.38 E.04297
G1 X106.194 Y86.155 E.04199
G1 X106.287 Y86.562 F9000
;TYPE:Outer wall
G1 F1800
G1 X106.288 Y86.562 E.00001
G1 X107.52 Y86.4 E.04224
G1 X108.882 Y86.299 E.0464
G1 X110 Y86.27 E.03802
G1 X111.242 Y86.302 E.04222
G1 X112.48 Y86.4 E.04222
G1 X113.712 Y86.562 E.04222
G1 X114.934 Y86.788 E.04222
G1 X116.142 Y87.078 E.04222
G1 X117.333 Y87.431 E.04222
G1 X118.504 Y87.846 E.04222
G1 X119.652 Y88.321 E.04222
G1 X120.773 Y88.856 E.04222
G1 X121.865 Y89.449 E.04222
G1 X122.924 Y90.098 E.04222
G1 X123.948 Y90.802 E.04223
G1 X124.934 Y91.558 E.04222
G1 X125.879 Y92.365 E.04222
G1 X126.78 Y93.22 E.04222
G1 X127.635 Y94.121 E.04222
G1 X128.442 Y95.066 E.04222
G1 X129.198 Y96.052 E.04222
G1 X129.902 Y97.076 E.04223
G1 X130.551 Y98.135 E.04224
G1 X131.197 Y99.338 E.0464
G1 X131.678 Y100.348 E.03802
G1 X132.154 Y101.496 E.04222
G1 X132.569 Y102.667 E.04222
G1 X132.921 Y103.858 E.04222
G1 X133.212 Y105.066 E.04222
G1 X133.438 Y106.288 E.04222
G1 X133.6 Y107.52 E.04222
G1 X133.698 Y108.758 E.04222
G1 X133.73 Y110 E.04222
G1 X133.698 Y111.242 E.04222
G1 X133.6 Y112.48 E.04222
G1 X133.438 Y113.712 E.04222
G1 X133.212 Y114.934 E.04222
G1 X132.921 Y116.142 E.04222
G1 X132.569 Y117.333 E.04222
G1 X132.154 Y118.504 E.04222
G1 X131.679 Y119.652 E.04222
G1 X131.144 Y120.773 E.04222
G1 X130.551 Y121.865 E.04222
G1 X129.902 Y122.924 E.04222
G1 X129.198 Y123.948 E.04223
G1 X128.442 Y124.934 E.04222
G1 X127.635 Y125.879 E.04222
G1 X126.78 Y126.78 E.04222
G1 X125.879 Y127.635 E.04222
G1 X124.934 Y128.442 E.04222
G1 X123.948 Y129.198 E.04222
G1 X122.924 Y129.902 E.04223
G1 X121.865 Y130.551 E.04224
G1 X120.662 Y131.197 E.0464
G1 X119.652 Y131.679 E.03802
G1 X118.504 Y132.154 E.04222
G1 X117.333 Y132.569 E.04222
G1 X116.142 Y132.921 E.04222
G1 X114.934 Y133.212 E.04222
G1 X113.712 Y133.438 E.04222
G1 X112.48 Y133.6 E.04222
G1 X111.242 Y133.698 E.04222
G1 X110 Y133.73 E.04222
G1 X108.758 Y133.698 E.04222
G1 X107.52 Y133.6 E.04222
G1 X106.288 Y133.438 E.04222
G1 X105.066 Y133.212 E.04222
G1 X103.858 Y132.921 E.04222
G1 X102.667 Y132.569 E.04222
G1 X101.496 Y132.154 E.04222
G1 X100.348 Y131.679 E.04222
G1 X99.227 Y131.144 E.04222
G1 X98.135 Y130.551 E.04222
G1 X97.076 Y129.902 E.04222
G1 X96.052 Y129.198 E.04223
G1 X95.066 Y128.442 E.04222
G1 X94.121 Y127.635 E.04222
G1 X93.22 Y126.78 E.04222
G1 X92.365 Y125.879 E.04222
G1 X91.558 Y124.934 E.04222
G1 X90.802 Y123.948 E.04222
G1 X90.098 Y122.924 E.04223
G1 X89.449 Y121.865 E.04224
G1 X88.803 Y120.662 E.0464
G1 X88.321 Y119.652 E.03802
G1 X87.846 Y118.504 E.04222
G1 X87.431 Y117.333 E.04222
G1 X87.079 Y116.142 E.04222
G1 X86.788 Y114.934 E.04222
G1 X86.562 Y113.712 E.04222
G1 X86.4 Y112.48 E.04222
G1 X86.302 Y111.242 E.04222
G1 X86.27 Y110 E.04222
G1 X86.302 Y108.758 E.04222
G1 X86.4 Y107.52 E.04222
G1 X86.562 Y106.288 E.04222
G1 X86.788 Y105.066 E.04222
G1 X87.078 Y103.858 E.04222
G1 X87.431 Y102.667 E.04222
G1 X87.846 Y101.496 E.04222
G1 X88.321 Y100.348 E.04222
G1 X88.856 Y99.227 E.04222
G1 X89.449 Y98.135 E.04222
G1 X90.098 Y97.076 E.04222
G1 X90.802 Y96.052 E.04223
G1 X91.558 Y95.066 E.04222
G1 X92.365 Y94.121 E.04222
G1 X93.22 Y93.22 E.04222
G1 X94.121 Y92.365 E.04222
G1 X95.066 Y91.558 E.04222
G1 X96.052 Y90.802 E.04222
G1 X97.076 Y90.098 E.04223
G1 X98.135 Y89.449 E.04222
G1 X99.227 Y88.856 E.04222
G1 X100.348 Y88.322 E.04222
G1 X101.496 Y87.846 E.04222
G1 X102.667 Y87.431 E.04222
G1 X103.858 Y87.079 E.04222
G1 X105.066 Y86.788 E.04222
G1 X106.248 Y86.569 E.04085
G1 E-.84 F2400
;WIPE_START
G1 F1800
G1 X106.288 Y86.562 E-.01452
G1 X107.239 Y86.437 E-.34548
;WIPE_END
G1 Z.6 F9000
G1 X135.728 Y85.118
G1 Z.6
G1 Z.2
G1 E1.2 F1800
;TYPE:Bottom surface
;WIDTH:0.461472
G1 F4800
G1 X135.069 Y84.46 E.03177
G1 X134.477 Y84.46 E.02019
G1 X135.54 Y85.523 E.05126
G1 X135.54 Y86.115 E.02019
G1 X133.885 Y84.46 E.07981
G1 X133.293 Y84.46 E.02019
G1 X135.54 Y86.707 E.10836
G1 X135.54 Y87.298 E.02019
G1 X132.702 Y84.46 E.13692
G1 X132.11 Y84.46 E.02019
G1 X135.54 Y87.89 E.16547
G1 X135.54 Y88.482 E.02019
G1 X131.518 Y84.46 E.19402
G1 X130.926 Y84.46 E.02019
G1 X135.54 Y89.074 E.22257
G1 X135.54 Y89.666 E.02019
G1 X130.334 Y84.46 E.25112
G1 X129.742 Y84.46 E.02019
G1 X135.54 Y90.258 E.27967
G1 X135.54 Y90.85 E.02019
G1 X129.15 Y84.46 E.30822
G1 X128.558 Y84.46 E.02019
G1 X135.54 Y91.442 E.33677
G1 X135.54 Y92.034 E.02019
G1 X127.966 Y84.46 E.36532
G1 X127.374 Y84.46 E.02019
G1 X135.54 Y92.626 E.39387
G1 X135.54 Y93.218 E.02019
G1 X126.782 Y84.46 E.42242
G1 X126.19 Y84.46 E.02019
G1 X135.54 Y93.81 E.45098
G1 X135.54 Y94.402 E.02019
G1 X125.598 Y84.46 E.47953
G1 X125.007 Y84.46 E.02019
G1 X135.54 Y94.993 E.50808
G1 X135.54 Y95.585 E.02019
G1 X124.415 Y84.46 E.53663
G1 X123.823 Y84.46 E.02019
G1 X135.54 Y96.177 E.56518
G1 X135.54 Y96.769 E.02019
G1 X123.231 Y84.46 E.59373
G1 X122.639 Y84.46 E.02019
G1 X135.54 Y97.361 E.62228
G1 X135.54 Y97.953 E.02019
G1 X122.047 Y84.46 E.65083
G1 X121.455 Y84.46 E.02019
G1 X135.54 Y98.545 E.67938
G1 X135.54 Y99.137 E.02019
G1 X120.863 Y84.46 E.70793
G1 X120.271 Y84.46 E.02019
G1 X135.54 Y99.729 E.73648
G1 X135.54 Y100.321 E.02019
G1 X119.679 Y84.46 E.76503
G1 X119.087 Y84.46 E.02019
G1 X135.54 Y100.913 E.79359
G1 X135.54 Y101.505 E.02019
G1 X130.073 Y96.037 E.2637
G1 X129.775 Y95.605 E.0179
G1 X128.995 Y94.59 E.04367
G1 X128.162 Y93.617 E.04368
G1 X127.296 Y92.704 E.04293
G1 X126.383 Y91.838 E.04293
G1 X125.41 Y91.005 E.04368
G1 X124.395 Y90.225 E.04367
G1 X123.963 Y89.927 E.0179
G1 X118.495 Y84.46 E.2637
G1 X117.904 Y84.46 E.02019
G1 X122.309 Y88.865 E.21248
G1 X121.017 Y88.165 E.05012
G1 X117.312 Y84.46 E.17871
G1 X116.72 Y84.46 E.02019
G1 X119.892 Y87.632 E.153
G1 X118.879 Y87.212 E.03738
G1 X116.128 Y84.46 E.13273
G1 X115.536 Y84.46 E.02019
G1 X117.954 Y86.878 E.11665
G1 X117.538 Y86.731 E.01507
G1 X117.079 Y86.595 E.01629
G1 X114.944 Y84.46 E.10301
G1 X114.352 Y84.46 E.02019
G1 X116.245 Y86.353 E.0913
G1 X115.467 Y86.167 E.02728
G1 X113.76 Y84.46 E.08232
G1 X113.168 Y84.46 E.02019
G1 X114.714 Y86.006 E.07456
G1 X113.988 Y85.872 E.02517
G1 X112.576 Y84.46 E.06811
G1 X111.984 Y84.46 E.02019
G1 X113.296 Y85.772 E.06327
G1 X112.615 Y85.683 E.02342
G1 X111.392 Y84.46 E.05897
G1 X110.8 Y84.46 E.02019
G1 X111.969 Y85.628 E.05634
G1 X111.327 Y85.578 E.02196
G1 X110.209 Y84.46 E.05393
G1 X109.617 Y84.46 E.02019
G1 X110.716 Y85.559 E.05302
G1 X110.108 Y85.544 E.02072
G1 X109.025 Y84.46 E.05227
G1 X108.433 Y84.46 E.02019
G1 X109.525 Y85.553 E.05271
G1 X108.949 Y85.568 E.01966
G1 X107.841 Y84.46 E.05346
G1 X107.249 Y84.46 E.02019
G1 X108.393 Y85.604 E.05518
G1 X107.842 Y85.645 E.01883
G1 X106.657 Y84.46 E.05717
G1 X106.065 Y84.46 E.02019
G1 X107.298 Y85.693 E.05948
G1 X106.775 Y85.762 E.01799
G1 X105.473 Y84.46 E.06281
G1 X104.881 Y84.46 E.02019
G1 X106.253 Y85.831 E.06615
G1 X105.749 Y85.92 E.01743
G1 X104.289 Y84.46 E.07043
G1 X103.697 Y84.46 E.02019
G1 X105.25 Y86.013 E.07491
G1 X104.758 Y86.112 E.01714
G1 X103.105 Y84.46 E.07969
G1 X102.514 Y84.46 E.02019
G1 X104.281 Y86.227 E.08524
G1 X103.804 Y86.342 E.01673
G1 X101.922 Y84.46 E.09078
G1 X101.33 Y84.46 E.02019
G1 X103.341 Y86.471 E.097
G1 X102.884 Y86.606 E.01624
G1 X100.738 Y84.46 E.10354
G1 X100.146 Y84.46 E.02019
G1 X102.428 Y86.742 E.11008
G1 X101.991 Y86.897 E.01582
G1 X99.554 Y84.46 E.11755
G1 X98.962 Y84.46 E.02019
G1 X101.554 Y87.052 E.12503
G1 X101.121 Y87.211 E.01573
G1 X98.37 Y84.46 E.13271
G1 X97.778 Y84.46 E.02019
G1 X100.703 Y87.385 E.14107
G1 X100.284 Y87.558 E.01545
G1 X97.186 Y84.46 E.14943
G1 X96.594 Y84.46 E.02019
G1 X99.874 Y87.74 E.15821
G1 X99.474 Y87.931 E.01514
G1 X96.002 Y84.46 E.16743
G1 X95.41 Y84.46 E.02019
G1 X99.073 Y88.122 E.17665
G1 X98.681 Y88.322 E.01501
G1 X94.819 Y84.46 E.1863
G1 X94.227 Y84.46 E.02019
G1 X98.298 Y88.531 E.19636
G1 X97.914 Y88.74 E.01488
G1 X93.635 Y84.46 E.20642
G1 X93.043 Y84.46 E.02019
G1 X97.541 Y88.958 E.21695
G1 X97.174 Y89.183 E.01468
G1 X92.451 Y84.46 E.22781
G1 X91.859 Y84.46 E.02019
G1 X96.807 Y89.408 E.23867
G1 X96.45 Y89.643 E.01458
G1 X91.267 Y84.46 E.25
G1 X90.675 Y84.46 E.02019
G1 X96.099 Y89.884 E.26164
G1 X95.749 Y90.126 E.01452
G1 X90.083 Y84.46 E.27328
G1 X89.491 Y84.46 E.02019
G1 X95.408 Y90.376 E.28538
G1 X95.073 Y90.634 E.0144
G1 X88.899 Y84.46 E.29779
G1 X88.307 Y84.46 E.02019
G1 X94.738 Y90.891 E.3102
G1 X94.413 Y91.157 E.01435
G1 X87.715 Y84.46 E.32303
G1 X87.124 Y84.46 E.02019
G1 X94.094 Y91.43 E.33619
G1 X93.775 Y91.703 E.01432
G1 X86.532 Y84.46 E.34936
G1 X85.94 Y84.46 E.02019
G1 X93.463 Y91.984 E.3629
G1 X93.16 Y92.272 E.01428
G1 X85.348 Y84.46 E.3768
G1 X84.756 Y84.46 E.02019
G1 X92.856 Y92.56 E.39071
G1 X92.56 Y92.856 E.01428
G1 X84.46 Y84.756 E.39071
G1 X84.46 Y85.348 E.02019
G1 X92.272 Y93.16 E.3768
G1 X91.984 Y93.463 E.01428
G1 X84.46 Y85.94 E.3629
G1 X84.46 Y86.532 E.02019
G1 X91.703 Y93.775 E.34936
G1 X91.43 Y94.094 E.01432
G1 X84.46 Y87.124 E.33619
G1 X84.46 Y87.715 E.02019
G1 X91.157 Y94.413 E.32303
G1 X90.891 Y94.738 E.01435
G1 X84.46 Y88.307 E.3102
G1 X84.46 Y88.899 E.02019
G1 X90.634 Y95.073 E.29779
G1 X90.376 Y95.408 E.0144
G1 X84.46 Y89.491 E.28538
G1 X84.46 Y90.083 E.02019
G1 X90.126 Y95.749 E.27329
G1 X89.884 Y96.099 E.01452
G1 X84.46 Y90.675 E.26164
G1 X84.46 Y91.267 E.02019
G1 X89.643 Y96.45 E.25
G1 X89.408 Y96.807 E.01458
G1 X84.46 Y91.859 E.23867
G1 X84.46 Y92.451 E.02019
G1 X89.183 Y97.174 E.22781
G1 X88.958 Y97.54 E.01468
G1 X84.46 Y93.043 E.21695
G1 X84.46 Y93.635 E.02019
G1 X88.74 Y97.914 E.20643
G1 X88.531 Y98.298 E.01488
G1 X84.46 Y94.227 E.19636
G1 X84.46 Y94.818 E.02019
G1 X88.322 Y98.681 E.1863
G1 X88.122 Y99.073 E.015
G1 X84.46 Y95.41 E.17665
G1 X84.46 Y96.002 E.02019
G1 X87.931 Y99.473 E.16741
G1 X87.739 Y99.874 E.01514
G1 X84.46 Y96.594 E.15818
G1 X84.46 Y97.186 E.02019
G1 X87.559 Y100.285 E.14946
G1 X87.385 Y100.703 E.01545
G1 X84.46 Y97.778 E.14109
G1 X84.46 Y98.37 E.02019
G1 X87.211 Y101.121 E.13271
G1 X87.052 Y101.554 E.01573
G1 X84.46 Y98.962 E.12504
G1 X84.46 Y99.554 E.02019
G1 X86.897 Y101.991 E.11758
G1 X86.743 Y102.429 E.01582
G1 X84.46 Y100.146 E.11011
G1 X84.46 Y100.738 E.02019
G1 X86.606 Y102.884 E.10353
G1 X86.471 Y103.341 E.01625
G1 X84.46 Y101.33 E.09702
G1 X84.46 Y101.922 E.02019
G1 X86.341 Y103.803 E.09075
G1 X86.227 Y104.281 E.01675
G1 X84.46 Y102.513 E.08524
G1 X84.46 Y103.105 E.02019
G1 X86.113 Y104.758 E.07973
G1 X86.012 Y105.25 E.01711
G1 X84.46 Y103.697 E.07489
G1 X84.46 Y104.289 E.02019
G1 X85.92 Y105.75 E.07044
G1 X85.831 Y106.252 E.0174
G1 X84.46 Y104.881 E.06612
G1 X84.46 Y105.473 E.02019
G1 X85.762 Y106.775 E.06282
G1 X85.694 Y107.299 E.01801
G1 X84.46 Y106.065 E.05952
G1 X84.46 Y106.657 E.02019
G1 X85.643 Y107.84 E.05706
G1 X85.6 Y108.389 E.01879
G1 X84.46 Y107.249 E.055
G1 X84.46 Y107.841 E.02019
